X: 14405
T: Galway Belle, The
R: polka
M: 2/4
K: Eminor
|:E>F GA|Be B2|AF DF|EF DF|
E>F GA|Be B2|AF DF|1 E2 EF:|2 E2 E2||
ee BB|ee B2|AF DF|EF D2|
ee BB|ee B2|AF DF|E2 E2|
ee BB|ee BB|AF DF|EF D2|
E>F GA|Be B2|AF DF|E2 E2||

